X:1     %Music
T:Run, Boys, Run
B:Alan Lomax, The Penguin Book of American Folk Songs, Penguin, 1964
F:http://www.folkinfo.org/songs
Q:1/4=252     %Tempo
M:C     %Meter
L:1/8     %
K:C
|:G2 G2 C3 C |EE DD E2 G2 |G2 G2 C3 C |EE DD C4 :|
w:Run, boys, run, the pat-ter-ol ul catch you, Run, boys, run, you bet-ter get a-way. 
|:e2 c2 c4 |e2 c2 c4 |e2 c2 c2 A2 |A2 G2 G4 :|
w:Char-ley run, Char-ley flew, Char-ley tore his shirt in two. 